X:1
T:Nestling, 86.86.888
T:Nestling, 86.86.888
T:August Hendrik Winding (1835-1899)
T:Public Domain Courtesy of the Cyber Hymnal™
C:August Hendrik Winding (1835-1899)
Z:Public Domain
Z:Courtesy of the Cyber Hymnal™
%%score ( 1 2 ) ( 3 4 )
L:1/8
Q:1/4=110
M:4/4
K:Eb
V:1 treble 
V:2 treble 
V:3 bass 
V:4 bass 
V:1
 [GB]2 | B3 c d2 [AB]2 | [Ge]2 [Ac]2 [GB]2 [EG]2 | A3 A A2 B2 | [EG]6 E2 | B2 A2 [EG]2 [DF]2 | %6
 E2 D2 E2 [DF]2 | G2 =A2 [DB]2 [Ec]2 | [DB]6 [Ee]2 | d2 c2 B2 [Ec]2 | A3 G A2 [Cc]2 | B2 A2 G2 B2 | %12
 [DF]3 [CE] F2 (GA) | B2 G2 G2 F2 | [CE]4 [DF]4 | [B,E]6 |] %16
V:2
 x2 | F6 x2 | x8 | E4 F4 | x6 E2 | F4 x4 | B,6 x2 | E4 x4 | x8 | F6 x2 | C6 x2 | F4 E4 | x4 D4 | %13
 E4 C4 | x8 | x6 |] %16
V:3
 [E,E]2 | D3 E F2 [B,D]2 | B,4 E2 [E,B,]2 | A,2 C2 [D,B,]4 | [E,B,]6 [G,B,]2 | B,8 | B,6 [B,,B,]2 | %7
 [E,B,]2 [C,C]2 [G,B,]2 [F,=A,]2 | [B,,B,]6 [G,B,]2 | A,6 [E,G,]2 | [F,A,]6 [E,G,]2 | [D,F,]4 B,4 | %12
 B,8 | [G,,B,]4 B,2 A,2 | [C,G,]4 [B,,A,]4 | [E,G,]6 |] %16
V:4
 x2 | B,6 x2 | E,6 x2 | C,4 x4 | x8 | D,4 E,2 A,2 | G,2 A,2 G,2 x2 | x8 | x8 | F,2 E,2 D,2 x2 | %10
 x8 | x4 C,2 G,2 | B,4 B,,2 A,,2 | x4 A,,4 | x8 | x6 |] %16

